#define File_width 25
#define File_height 25
static char File_bits[] = {
   0x00, 0x00, 0x00, 0x00, 0xfc, 0x00, 0x00, 0x00, 0x02, 0x01, 0x00, 0x00,
   0x02, 0x01, 0x00, 0x00, 0xe2, 0xff, 0x01, 0x00, 0x12, 0x08, 0x02, 0x00,
   0x12, 0x08, 0x02, 0x00, 0x12, 0xff, 0x0f, 0x00, 0x92, 0x60, 0x10, 0x00,
   0x92, 0x40, 0x10, 0x00, 0x92, 0xc0, 0x7f, 0x00, 0x92, 0x00, 0x80, 0x00,
   0x92, 0x00, 0x80, 0x00, 0x92, 0x00, 0x80, 0x00, 0x92, 0x00, 0x80, 0x00,
   0x92, 0x00, 0x80, 0x00, 0x92, 0x00, 0x80, 0x00, 0x92, 0x00, 0x80, 0x00,
   0x92, 0x00, 0x80, 0x00, 0x9c, 0x00, 0x80, 0x00, 0x90, 0x00, 0x80, 0x00,
   0xe0, 0x00, 0x80, 0x00, 0x80, 0x00, 0x80, 0x00, 0x00, 0xff, 0x7f, 0x00,
   0x00, 0x00, 0x00, 0x00};
